X:68
T: KEINE ROSE OHNE DORNEN
N: E0680
O: Europa, Mitteleuropa, Deutschland
R: Liebes - Lied, Leid, Klage
M: 3/4
L: 1/16
K: Eb
 | B2G2B2G2e2c2 | B4A2B2G4 |
B2e2c2BA | G4F4 | E4z4
B2G2B2G2e2c2 | B4A2B2G4 |
B2e2c2BA | G4F4 | E4z4
F2G2 | B3AF4G2A2 | c3BG4
F2G2 | B3AF4G2A2 | c3BG4z4 |
B2G2B2G2e2c2 | B4A2B2G4 |
B2e2c2BA | G4F4 | E4z4

